;FLAVOR:Marlin
;TIME:2897
;Filament used: 1.40783m
;Layer height: 0.1
;Generated with Cura_SteamEngine 4.0.0
M104 S210
M105
M109 S210
M82 ;absolute extrusion mode
G21 ;metric values
G90 ;absolute positioning
M82 ;set extruder to absolute mode
M107 ;start with the fan off
G28 X0 Y0 ;move X/Y to min endstops
G28 Z0 ;move Z to min endstops
G1 Z15.0 F9000 ;move the platform down 15mm
G92 E0 ;zero the extruded length
G1 F200 E3 ;extrude 3mm of feed stock
G92 E0 ;zero the extruded length again
G1 F9000
;Put printing message on LCD screen
M117 Printing...
G92 E0
G1 F1500 E-6.5
;LAYER_COUNT:174
;LAYER:0
M107
G0 F3300 X84.997 Y87.322 Z0.3
;TYPE:SKIRT
G1 F1500 E0
G1 F2700 X85.396 Y86.947 E0.02049
G1 X85.844 Y86.633 E0.04096
G1 X86.112 Y86.488 E0.05236
G1 X86.8 Y86.151 E0.08103
G1 X87.308 Y85.947 E0.10151
G1 X87.84 Y85.819 E0.12198
G1 X88.449 Y85.769 E0.14485
G1 X111.513 Y85.761 E1.00785
G1 X112.059 Y85.801 E1.02833
G1 X112.593 Y85.92 E1.04881
G1 X113.089 Y86.108 E1.06865
G1 X113.785 Y86.43 E1.09735
G1 X114.263 Y86.695 E1.1178
G1 X114.698 Y87.027 E1.13827
G1 X115.054 Y87.389 E1.15727
G1 X115.39 Y87.78 E1.17656
G1 X115.716 Y88.22 E1.19705
G1 X115.974 Y88.703 E1.21754
G1 X116.155 Y89.206 E1.23754
G1 X116.371 Y89.972 E1.26732
G1 X116.481 Y90.508 E1.2878
G1 X116.512 Y90.995 E1.30606
G1 X116.489 Y109.269 E1.98983
G1 X116.448 Y109.815 E2.01031
G1 X116.329 Y110.349 E2.03079
G1 X116.142 Y110.839 E2.05041
G1 X115.82 Y111.535 E2.0791
G1 X115.555 Y112.013 E2.09956
G1 X115.223 Y112.448 E2.12003
G1 X114.861 Y112.804 E2.13903
G1 X114.47 Y113.14 E2.15832
G1 X114.03 Y113.466 E2.17881
G1 X113.387 Y113.79 E2.20575
G1 X112.912 Y113.975 E2.22482
G1 X112.396 Y114.135 E2.24504
G1 X107.825 Y115.192 E2.42059
G1 X107.186 Y115.282 E2.44473
G1 X105.88 Y115.354 E2.49368
G1 X105.657 Y115.36 E2.50202
G1 X92.75 Y115.3 E2.98498
G1 X92.204 Y115.257 E3.00547
G1 X91.863 Y115.189 E3.01848
G1 X87.353 Y114.069 E3.19236
G1 X86.833 Y113.899 E3.21283
G1 X86.151 Y113.532 E3.24181
G1 X85.5 Y113.09 E3.27125
G1 X85.07 Y112.751 E3.29174
G1 X84.695 Y112.352 E3.31223
G1 X84.382 Y111.903 E3.33271
G1 X84.238 Y111.638 E3.34399
G1 X83.901 Y110.95 E3.37266
G1 X83.697 Y110.442 E3.39314
G1 X83.569 Y109.91 E3.41362
G1 X83.519 Y109.309 E3.43618
G1 X83.476 Y91.719 E4.09436
G1 X83.487 Y91.418 E4.10563
G1 X83.581 Y90.216 E4.15075
G1 X83.664 Y89.675 E4.17123
G1 X83.824 Y89.151 E4.19173
G1 X84.059 Y88.657 E4.2122
G1 X84.216 Y88.404 E4.22334
G1 X84.658 Y87.752 E4.25281
G1 X84.997 Y87.322 E4.2733
G0 F3300 X85.233 Y87.509
G1 F2700 X85.618 Y87.153 E4.29292
G1 X86.244 Y86.758 E4.32062
G1 X86.932 Y86.421 E4.34928
G1 X87.42 Y86.226 E4.36895
G1 X87.932 Y86.108 E4.38861
G1 X88.449 Y86.069 E4.40801
G1 X111.513 Y86.061 E5.27101
G1 X112.036 Y86.101 E5.29063
G1 X112.548 Y86.219 E5.31029
G1 X112.963 Y86.38 E5.32695
G1 X113.659 Y86.702 E5.35564
G1 X114.117 Y86.958 E5.37528
G1 X114.531 Y87.281 E5.39492
G1 X114.827 Y87.584 E5.41077
G1 X115.163 Y87.975 E5.43006
G1 X115.473 Y88.399 E5.44972
G1 X115.717 Y88.864 E5.46937
G1 X115.867 Y89.288 E5.4862
G1 X116.083 Y90.054 E5.51597
G1 X116.186 Y90.568 E5.53559
G1 X116.212 Y90.994 E5.55156
G1 X116.189 Y109.268 E6.23533
G1 X116.148 Y109.792 E6.255
G1 X116.029 Y110.303 E6.27463
G1 X115.87 Y110.713 E6.29108
G1 X115.548 Y111.409 E6.31978
G1 X115.292 Y111.867 E6.33941
G1 X114.969 Y112.281 E6.35906
G1 X114.666 Y112.577 E6.37491
G1 X114.275 Y112.913 E6.3942
G1 X113.851 Y113.223 E6.41385
G1 X113.278 Y113.511 E6.43785
G1 X112.803 Y113.696 E6.45692
G1 X112.328 Y113.842 E6.47552
G1 X107.757 Y114.899 E6.65106
G1 X107.17 Y114.983 E6.67325
G1 X105.864 Y115.055 E6.72219
G1 X105.658 Y115.06 E6.7299
G1 X92.751 Y115 E7.21286
G1 X92.228 Y114.958 E7.23249
G1 X91.935 Y114.898 E7.24368
G1 X87.425 Y113.778 E7.41756
G1 X86.927 Y113.613 E7.43719
G1 X86.319 Y113.284 E7.46306
G1 X85.668 Y112.842 E7.4925
G1 X85.257 Y112.515 E7.51215
G1 X84.901 Y112.13 E7.53178
G1 X84.508 Y111.506 E7.55937
G1 X84.171 Y110.818 E7.58803
G1 X83.976 Y110.33 E7.6077
G1 X83.858 Y109.818 E7.62736
G1 X83.819 Y109.308 E7.6465
G1 X83.776 Y91.718 E8.30468
G1 X83.787 Y91.441 E8.31505
G1 X83.881 Y90.239 E8.36016
G1 X83.961 Y89.72 E8.37981
G1 X84.12 Y89.22 E8.39944
G1 X84.464 Y88.572 E8.42689
G1 X84.906 Y87.92 E8.45637
G1 X85.233 Y87.509 E8.47602
G0 F3300 X85.468 Y87.697
G1 F2700 X85.84 Y87.36 E8.4948
G1 X86.376 Y87.027 E8.51841
G1 X87.064 Y86.69 E8.54708
G1 X87.531 Y86.506 E8.56586
G1 X88.021 Y86.398 E8.58464
G1 X88.449 Y86.369 E8.60069
G1 X111.513 Y86.361 E9.46369
G1 X112.013 Y86.401 E9.48246
G1 X112.5 Y86.519 E9.50121
G1 X112.837 Y86.652 E9.51476
G1 X113.533 Y86.974 E9.54346
G1 X113.97 Y87.22 E9.56222
G1 X114.362 Y87.533 E9.58099
G1 X114.599 Y87.78 E9.5938
G1 X114.935 Y88.171 E9.61309
G1 X115.231 Y88.576 E9.63186
G1 X115.458 Y89.023 E9.65062
G1 X115.578 Y89.369 E9.66432
G1 X115.794 Y90.135 E9.6941
G1 X115.891 Y90.627 E9.71286
G1 X115.912 Y90.994 E9.72662
G1 X115.889 Y109.268 E10.41039
G1 X115.848 Y109.768 E10.42916
G1 X115.729 Y110.255 E10.44792
G1 X115.598 Y110.587 E10.46128
G1 X115.276 Y111.283 E10.48997
G1 X115.03 Y111.72 E10.50873
G1 X114.717 Y112.112 E10.5275
G1 X114.47 Y112.349 E10.54031
G1 X114.079 Y112.685 E10.5596
G1 X113.674 Y112.981 E10.57837
G1 X113.169 Y113.231 E10.59946
G1 X112.694 Y113.416 E10.61853
G1 X112.261 Y113.55 E10.63549
G1 X107.69 Y114.607 E10.81104
G1 X107.153 Y114.683 E10.83133
G1 X105.847 Y114.755 E10.88028
G1 X105.659 Y114.76 E10.88731
G1 X92.752 Y114.7 E11.37027
G1 X92.008 Y114.607 E11.39832
G1 X87.498 Y113.487 E11.5722
G1 X87.022 Y113.328 E11.59098
G1 X86.488 Y113.036 E11.61375
G1 X85.837 Y112.594 E11.6432
G1 X85.445 Y112.28 E11.66199
G1 X85.109 Y111.908 E11.68075
G1 X84.777 Y111.374 E11.70427
G1 X84.44 Y110.686 E11.73294
G1 X84.256 Y110.219 E11.75172
G1 X84.148 Y109.729 E11.7705
G1 X84.119 Y109.308 E11.78629
G1 X84.076 Y91.718 E12.44447
G1 X84.086 Y91.464 E12.45398
G1 X84.18 Y90.262 E12.49909
G1 X84.258 Y89.767 E12.51784
G1 X84.415 Y89.29 E12.53663
G1 X84.713 Y88.74 E12.56004
G1 X85.155 Y88.088 E12.58951
G1 X85.468 Y87.697 E12.60825
G1 F1500 E6.10825
G0 F3300 X87.072 Y89.741
G0 X87.1 Y89.776
G0 X88.79 Y91.928
G0 X88.817 Y91.963
G0 X88.955 Y92.137
;TYPE:SUPPORT
G1 F1500 E12.60825
G1 F2700 X89.107 Y92.017 E12.6155
G1 X89.283 Y91.922 E12.62298
G1 X89.459 Y91.862 E12.62994
G1 X89.653 Y91.83 E12.6373
G1 X89.847 Y91.83 E12.64455
G1 X90.041 Y91.862 E12.65191
G1 X90.217 Y91.922 E12.65887
G1 X90.393 Y92.017 E12.66635
G1 X90.545 Y92.137 E12.6736
G1 X90.68 Y92.285 E12.6811
G1 X90.783 Y92.44 E12.68806
G1 X90.861 Y92.617 E12.6953
G1 X90.909 Y92.807 E12.70263
G1 X90.925 Y93 E12.70988
G1 X90.909 Y93.193 E12.71712
G1 X90.861 Y93.383 E12.72445
G1 X90.783 Y93.56 E12.73169
G1 X90.68 Y93.715 E12.73866
G1 X90.545 Y93.863 E12.74615
G1 X90.393 Y93.983 E12.7534
G1 X90.217 Y94.078 E12.76088
G1 X90.041 Y94.138 E12.76784
G1 X89.847 Y94.17 E12.7752
G1 X89.653 Y94.17 E12.78245
G1 X89.459 Y94.138 E12.78981
G1 X89.283 Y94.078 E12.79677
G1 X89.107 Y93.983 E12.80425
G1 X88.955 Y93.863 E12.8115
G1 X88.82 Y93.715 E12.81899
G1 X88.717 Y93.56 E12.82596
G1 X88.639 Y93.383 E12.8332
G1 X88.591 Y93.193 E12.84053
G1 X88.575 Y93 E12.84777
G1 X88.591 Y92.807 E12.85502
G1 X88.639 Y92.617 E12.86235
G1 X88.717 Y92.44 E12.86959
G1 X88.82 Y92.285 E12.87655
G1 X88.955 Y92.137 E12.88405
G0 F3300 X90 Y91.978
G1 F2700 X90 Y94.023 E12.96057
G0 F3300 X90.485 Y93.75
G1 F2700 X89.014 Y93.75 E13.01561
G1 F1500 E6.51561
G0 F3300 X89.126 Y94.243
G0 X89.135 Y94.287
G0 X92.954 Y111.06
G0 X92.963 Y111.104
G0 X93.015 Y111.324
G1 F1500 E13.01561
G1 F2700 X107.017 Y111.323 E13.53953
G1 X106.675 Y111.46 E13.55332
G1 X93.071 Y111.46 E14.06235
G1 X93.015 Y111.324 E14.06785
G1 F1500 E7.56785
G0 F3300 X93.885 Y111.099
G0 X108.834 Y107.258
G0 X108.877 Y107.247
G0 X109.091 Y107.193
G1 F1500 E14.06785
G1 F2700 X109.075 Y107 E14.0751
G1 X109.091 Y106.807 E14.08234
G1 X109.139 Y106.617 E14.08968
G1 X109.217 Y106.44 E14.09691
G1 X109.32 Y106.285 E14.10388
G1 X109.455 Y106.137 E14.11137
G1 X109.607 Y106.017 E14.11862
G1 X109.783 Y105.922 E14.1261
G1 X109.959 Y105.862 E14.13306
G1 X110.153 Y105.83 E14.14042
G1 X110.347 Y105.83 E14.14768
G1 X110.541 Y105.862 E14.15503
G1 X110.717 Y105.922 E14.16199
G1 X110.893 Y106.017 E14.16948
G1 X111.045 Y106.137 E14.17672
G1 X111.18 Y106.285 E14.18422
G1 X111.283 Y106.44 E14.19118
G1 X111.361 Y106.617 E14.19842
G1 X111.409 Y106.807 E14.20575
G1 X111.425 Y107 E14.213
G1 X111.409 Y107.193 E14.22024
G1 X111.361 Y107.383 E14.22758
G1 X111.283 Y107.56 E14.23481
G1 X111.18 Y107.715 E14.24178
G1 X111.045 Y107.863 E14.24927
G1 X110.893 Y107.983 E14.25652
G1 X110.717 Y108.078 E14.264
G1 X110.541 Y108.138 E14.27096
G1 X110.347 Y108.17 E14.27832
G1 X110.153 Y108.17 E14.28558
G1 X109.959 Y108.138 E14.29293
G1 X109.783 Y108.078 E14.29989
G1 X109.607 Y107.983 E14.30738
G1 X109.455 Y107.863 E14.31462
G1 X109.32 Y107.715 E14.32212
G1 X109.217 Y107.56 E14.32908
G1 X109.139 Y107.383 E14.33632
G1 X109.091 Y107.193 E14.34365
G1 F1500 E7.84365
;MESH:SENSIRION SPS30 Inlet Guide.STL
G0 F3300 X110.138 Y105.644
G0 X110.05 Y104.561
G0 X111.468 Y104.223
;TYPE:WALL-INNER
G1 F1500 E14.34365
G1 F2700 X111.439 Y104.214 E14.34479
G1 X110.991 Y104.061 E14.3625
G1 X110.497 Y103.98 E14.38123
G1 X110.003 Y103.98 E14.39972
G1 X109.509 Y104.061 E14.41845
G1 X109.032 Y104.223 E14.4373
G1 X108.589 Y104.464 E14.45617
G1 X108.197 Y104.773 E14.47484
G1 X107.86 Y105.139 E14.49346
G1 X107.585 Y105.555 E14.51212
G1 X107.383 Y106.016 E14.53095
G1 X107.261 Y106.501 E14.54967
G1 X107.219 Y107 E14.5684
G1 X107.261 Y107.499 E14.58714
G1 X107.383 Y107.984 E14.60585
G1 X107.585 Y108.445 E14.62469
G1 X107.86 Y108.861 E14.64335
G1 X108.156 Y109.183 E14.65971
G1 X108.197 Y109.227 E14.66196
G1 X108.509 Y109.473 E14.67683
G1 X108.198 Y109.473 E14.68108
G1 X108.137 Y109.473 E14.68318
G1 X88.799 Y109.474 E15.40676
G1 X88.665 Y109.462 E15.41179
G1 X88.591 Y109.443 E15.41465
G1 X88.527 Y109.412 E15.41731
G1 X88.441 Y109.352 E15.42124
G1 X88.398 Y109.309 E15.42351
G1 X88.338 Y109.223 E15.42743
G1 X88.307 Y109.159 E15.4301
G1 X88.288 Y109.085 E15.43295
G1 X88.277 Y108.96 E15.43765
G1 X88.277 Y95.809 E15.92973
G1 X88.277 Y95.778 E15.93089
G1 X88.276 Y95.638 E15.93613
G1 X88.532 Y95.777 E15.94295
G1 X88.561 Y95.786 E15.94401
G1 X89.009 Y95.939 E15.96173
G1 X89.503 Y96.02 E15.98046
G1 X89.997 Y96.02 E15.99894
G1 X90.491 Y95.939 E16.01767
G1 X90.968 Y95.777 E16.03652
G1 X91.411 Y95.536 E16.05539
G1 X91.803 Y95.227 E16.07407
G1 X92.14 Y94.861 E16.09269
G1 X92.415 Y94.445 E16.11135
G1 X92.617 Y93.984 E16.13018
G1 X92.739 Y93.499 E16.14889
G1 X92.781 Y93 E16.16763
G1 X92.739 Y92.501 E16.18637
G1 X92.617 Y92.016 E16.20508
G1 X92.415 Y91.555 E16.22391
G1 X92.14 Y91.139 E16.24257
G1 X91.846 Y90.82 E16.2588
G1 X91.803 Y90.773 E16.26119
G1 X91.495 Y90.53 E16.27587
G1 X91.802 Y90.53 E16.28
G1 X91.866 Y90.53 E16.28218
G1 X111.201 Y90.526 E17.00565
G1 X111.335 Y90.538 E17.01069
G1 X111.409 Y90.557 E17.01355
G1 X111.473 Y90.588 E17.01621
G1 X111.559 Y90.648 E17.02013
G1 X111.602 Y90.691 E17.02241
G1 X111.662 Y90.777 E17.02633
G1 X111.693 Y90.841 E17.02899
G1 X111.712 Y90.914 E17.03181
G1 X111.723 Y91.033 E17.03629
G1 X111.723 Y104.191 E17.52863
G1 X111.723 Y104.222 E17.52972
G1 X111.724 Y104.362 E17.53496
G1 X111.468 Y104.223 E17.54178
G0 F3300 X111.745 Y104.715
G1 F2700 X111.73 Y104.707 E17.54241
G1 X111.347 Y104.499 E17.55872
G1 X110.918 Y104.353 E17.57568
G1 X110.473 Y104.28 E17.59255
G1 X110.027 Y104.28 E17.60924
G1 X109.582 Y104.353 E17.62611
G1 X109.153 Y104.499 E17.64307
G1 X108.755 Y104.715 E17.66001
G1 X108.401 Y104.994 E17.67688
G1 X108.097 Y105.324 E17.69367
G1 X107.85 Y105.699 E17.71047
G1 X107.668 Y106.114 E17.72742
G1 X107.558 Y106.551 E17.74428
G1 X107.52 Y107 E17.76115
G1 X107.558 Y107.449 E17.77801
G1 X107.668 Y107.886 E17.79487
G1 X107.85 Y108.301 E17.81182
G1 X108.097 Y108.676 E17.82863
G1 X108.401 Y109.006 E17.84541
G1 X108.755 Y109.285 E17.86228
G1 X109.105 Y109.475 E17.87718
G1 X109.153 Y109.501 E17.87922
G1 X109.582 Y109.647 E17.89618
G1 X110.027 Y109.72 E17.91305
G1 X110.473 Y109.72 E17.92974
G1 X110.918 Y109.647 E17.94661
G1 X111.152 Y109.568 E17.95586
G1 X111.301 Y109.517 E17.96175
G1 X111.347 Y109.501 E17.96357
G1 X111.382 Y109.482 E17.96506
G1 X111.49 Y109.424 E17.96965
G1 X111.625 Y109.351 E17.97539
G1 X111.723 Y109.297 E17.97958
G1 X111.745 Y109.285 E17.98052
G1 X111.81 Y109.234 E17.98361
G1 X111.896 Y109.166 E17.98771
G1 X111.981 Y109.099 E17.99176
G1 X112.015 Y109.073 E17.99336
G1 X112.009 Y109.134 E17.99348
G1 X111.975 Y109.264 E17.99541
G1 X111.922 Y109.375 E17.99794
G1 X111.907 Y109.397 E17.99807
G1 X111.834 Y109.501 E18.00185
G1 X111.751 Y109.584 E18.00575
G1 X111.625 Y109.672 E18.01098
G1 X111.514 Y109.725 E18.01528
G1 X111.413 Y109.751 E18.01889
G1 X111.384 Y109.759 E18.01981
G1 X111.37 Y109.76 E18.02004
G1 X111.222 Y109.773 E18.02434
G1 X110.918 Y109.773 E18.03135
G1 X110.473 Y109.773 E18.03629
G1 X110.027 Y109.773 E18.03924
G1 X109.582 Y109.773 E18.04418
G1 X109.154 Y109.773 E18.05521
G1 X109.099 Y109.773 E18.05717
G1 X88.783 Y109.774 E18.81735
G1 X88.616 Y109.759 E18.82362
G1 X88.486 Y109.725 E18.82865
G1 X88.375 Y109.672 E18.83325
G1 X88.249 Y109.584 E18.839
G1 X88.166 Y109.501 E18.8434
G1 X88.078 Y109.375 E18.84915
G1 X88.025 Y109.264 E18.85375
G1 X87.991 Y109.134 E18.85878
G1 X87.977 Y108.975 E18.86475
G1 X87.977 Y95.304 E19.37629
G1 X87.977 Y95.286 E19.37696
G1 X87.976 Y95.065 E19.38523
G1 X88.255 Y95.285 E19.39328
G1 X88.27 Y95.293 E19.39389
G1 X88.653 Y95.501 E19.4102
G1 X89.082 Y95.647 E19.42716
G1 X89.527 Y95.72 E19.44403
G1 X89.973 Y95.72 E19.46072
G1 X90.418 Y95.647 E19.47759
G1 X90.847 Y95.501 E19.49455
G1 X91.245 Y95.285 E19.51149
G1 X91.599 Y95.006 E19.52836
G1 X91.903 Y94.676 E19.54515
G1 X92.15 Y94.301 E19.56195
G1 X92.332 Y93.886 E19.57891
G1 X92.442 Y93.449 E19.59577
G1 X92.48 Y93 E19.61263
G1 X92.442 Y92.551 E19.62949
G1 X92.332 Y92.114 E19.64635
G1 X92.15 Y91.699 E19.66331
G1 X91.903 Y91.324 E19.68011
G1 X91.599 Y90.994 E19.6969
G1 X91.245 Y90.715 E19.71376
G1 X90.901 Y90.528 E19.72841
G1 X90.847 Y90.499 E19.73071
G1 X90.418 Y90.353 E19.74766
G1 X89.973 Y90.28 E19.76454
G1 X89.527 Y90.28 E19.78122
G1 X89.082 Y90.353 E19.7981
G1 X88.806 Y90.446 E19.809
G1 X88.699 Y90.483 E19.81323
G1 X88.653 Y90.499 E19.81505
G1 X88.618 Y90.518 E19.81654
G1 X88.51 Y90.576 E19.82113
G1 X88.375 Y90.649 E19.82687
G1 X88.277 Y90.703 E19.83106
G1 X88.255 Y90.715 E19.832
G1 X88.19 Y90.766 E19.83509
G1 X88.104 Y90.834 E19.83919
G1 X88.019 Y90.901 E19.84324
G1 X87.985 Y90.928 E19.84487
G1 X87.991 Y90.865 E19.84553
G1 X88.025 Y90.736 E19.84744
G1 X88.078 Y90.625 E19.84997
G1 X88.093 Y90.603 E19.8501
G1 X88.166 Y90.499 E19.85388
G1 X88.249 Y90.416 E19.85778
G1 X88.375 Y90.328 E19.86301
G1 X88.486 Y90.275 E19.86731
G1 X88.587 Y90.249 E19.87092
G1 X88.616 Y90.241 E19.87177
G1 X88.63 Y90.24 E19.872
G1 X88.732 Y90.231 E19.87502
G1 X89.082 Y90.231 E19.88317
G1 X89.527 Y90.231 E19.88789
G1 X89.973 Y90.231 E19.89062
G1 X90.418 Y90.231 E19.89533
G1 X90.846 Y90.231 E19.90615
G1 X90.908 Y90.231 E19.90835
G1 X111.217 Y90.226 E20.66827
G1 X111.384 Y90.241 E20.67454
G1 X111.514 Y90.275 E20.67957
G1 X111.625 Y90.328 E20.68417
G1 X111.751 Y90.416 E20.68992
G1 X111.834 Y90.499 E20.69431
G1 X111.922 Y90.625 E20.70006
G1 X111.975 Y90.736 E20.70467
G1 X112.009 Y90.865 E20.70966
G1 X112.023 Y91.016 E20.71533
G1 X112.023 Y104.696 E21.22721
G1 X112.023 Y104.714 E21.22786
G1 X112.024 Y104.935 E21.23613
G1 X111.745 Y104.715 E21.24418
G0 F3300 X110.452 Y104.541
G0 X109.645 Y104.607
G0 X108.897 Y104.934
G0 X108.301 Y105.487
G0 X107.99 Y106.063
